mono-glyphs/download-w.svg

<svg xmlns="http://www.w3.org/2000/svg" width="1024" height="1024" fill="none" viewBox="0 0 1024 1024">
  <path fill="#fff" d="M192 576c0-8.667 3.167-16.167 9.5-22.5 6.333-6.333 13.833-9.5 22.5-9.5s16.167 3.167 22.5 9.5l233.5 233V32c0-8.667 3.167-16.167 9.5-22.5C495.833 3.167 503.333 0 512 0s16.167 3.167 22.5 9.5c6.333 6.333 9.5 13.833 9.5 22.5v754.5l233.5-233c6.333-6.333 13.833-9.5 22.5-9.5s16.167 3.167 22.5 9.5c6.333 6.333 9.5 13.833 9.5 22.5s-3.167 16.167-9.5 22.5L536 885c-3.667 3.667-7.25 6.417-10.75 8.25-3.5 1.833-7.917 2.75-13.25 2.75s-9.75-.917-13.25-2.75-7.083-4.583-10.75-8.25L201.5 598.5c-6.333-6.333-9.5-13.833-9.5-22.5Zm640 384c8.667 0 16.167 3.167 22.5 9.5 6.333 6.333 9.5 13.833 9.5 22.5 0 8.67-3.167 16.17-9.5 22.5-6.333 6.33-13.833 9.5-22.5 9.5H192c-8.667 0-16.167-3.17-22.5-9.5-6.333-6.33-9.5-13.83-9.5-22.5 0-8.667 3.167-16.167 9.5-22.5 6.333-6.333 13.833-9.5 22.5-9.5h640Z"/>
</svg>

<svg width="1024" height="1024" viewBox="0 0 1024 1024" fill="none" xmlns="http://www.w3.org/2000/svg">
<mask id="mask0_12_150" style="mask-type:luminance" maskUnits="userSpaceOnUse" x="160" y="0" width="704" height="1024">
<path d="M864 0H160V1024H864V0Z" fill="white"/>
</mask>
<g mask="url(#mask0_12_150)">
<path d="M192 576C192 567.333 195.167 559.833 201.5 553.5C207.833 547.167 215.333 544 224 544C232.667 544 240.167 547.167 246.5 553.5L480 786.5V32C480 23.3334 483.167 15.8334 489.5 9.5C495.833 3.16669 503.333 0 512 0C520.667 0 528.167 3.16669 534.5 9.5C540.833 15.8334 544 23.3334 544 32V786.5L777.5 553.5C783.833 547.167 791.333 544 800 544C808.667 544 816.167 547.167 822.5 553.5C828.833 559.833 832 567.333 832 576C832 584.667 828.833 592.167 822.5 598.5L536 885C532.333 888.667 528.75 891.417 525.25 893.25C521.75 895.083 517.333 896 512 896C506.667 896 502.25 895.083 498.75 893.25C495.25 891.417 491.667 888.667 488 885L201.5 598.5C195.167 592.167 192 584.667 192 576ZM832 960C840.667 960 848.167 963.167 854.5 969.5C860.833 975.833 864 983.333 864 992C864 1000.67 860.833 1008.17 854.5 1014.5C848.167 1020.83 840.667 1024 832 1024H192C183.333 1024 175.833 1020.83 169.5 1014.5C163.167 1008.17 160 1000.67 160 992C160 983.333 163.167 975.833 169.5 969.5C175.833 963.167 183.333 960 192 960H832Z" fill="white"/>
</g>
</svg>
